X:13
T:Alice Grey. WHG.013
R:song
S:W.H.Giles MS,Bampton,Oxfordshire,1839p14
O:England
H:donated by Mrs W.R.Kettlewell to VWML,Apr 1927.
A:Bampton, Oxfordshire
N:Transcribed as written in MS.
Z:PJHeadford – VMP 2009
M:2/4
L:1/8
Q:1/4=70
K:D
FG|” as written”A>F d>B|A>F FF|E e/d/ c/B/ A/G/|G3F A>F|
A>F F>G|A d d|c< B A< G|A2zA|
e> c A> G|E>F A>c|d>F F D/|D3 C|
A/G/ F/|D>E F>G|A/ Gz G/F/|E e/d/ c/B/ A/G/|
G2FzA>A|B2z/B/ c e/|d/ f/ dd|e>d e>f e|d2z2|
“Sym”AA .B/.c/.d/.B/ c/d/e/c/|\
d>e fa {g}|ff ef|”^D”[d2f2]z2|]

